X: 2722
T: Banks Of Lough Gowna, The
R: jig
M: 6/8
K: Bminor
|:~B3 BAF|FEF DFA|~B3 BAF|B/c/de fdc|
~B3 BAF|FEF DFA|def gfe|fdB ~B2A:|
|:def ~a3|afb afe|dFA B/c/df|gfe fdB|
def ~a3|afb afe|def gfe|fdB ~B2A:|

